src/assets/img/logo/yb_shape.svg

<svg width="40" height="40" viewBox="0 0 40 40" fill="none" xmlns="http://www.w3.org/2000/svg">
    <g id="shape-30">
        <g id="shape-30_2">
            <path d="M10.0002 19.9999L20.0002 9.99992L30.0002 19.9999L20.0002 29.9999L10.0002 19.9999Z" fill="#CAFF33"/>
            <path d="M36.6668 13.3333L30.0002 19.9999V9.99992H20.0002L26.6668 3.33325H36.6668V13.3333Z" fill="#CAFF33"/>
            <path d="M36.6668 26.6666L30.0002 19.9999V29.9999H20.0002L26.6668 36.6666H36.6668V26.6666Z" fill="#CAFF33"/>
            <path d="M3.3335 26.6666L10.0002 19.9999V29.9999H20.0002L13.3335 36.6666H3.3335L3.3335 26.6666Z" fill="#CAFF33"/>
            <path d="M3.3335 13.3333L10.0002 19.9999V9.99992H20.0002L13.3335 3.33325H3.3335L3.3335 13.3333Z" fill="#CAFF33"/>
        </g>
    </g>
</svg>

<svg width="40" height="40" fill="none" xmlns="http://www.w3.org/2000/svg"><g fill="#CAFF33"><path d="m10 20 10-10 10 10-10 10-10-10Z"/><path d="M36.667 13.333 30 20V10H20l6.667-6.667h10v10ZM36.667 26.667 30 20v10H20l6.667 6.667h10v-10ZM3.333 26.667 10 20v10h10l-6.666 6.667h-10v-10ZM3.333 13.333 10 20V10h10l-6.666-6.667h-10v10Z"/></g></svg>
